X: 5050
T: Brian Tobin's
R: reel
M: 4/4
K: Dmajor
|:"D"faaf a2 fa|"G"g2 ed "D"cdeg|"D"fdfa "G"gfeg|"D"fedf ec A2|
"D"faaf a2 fa|"G"g2 ed "D"cdeg|fdfa "G"gece|[M:2/4] "D"d2d2:|[M:4/4]
|:"D"Addc d2 eg|fdec dcAB|"C"=c2 Gc E2 =CC|=ccEG FED^C|
"D"Addc d2 eg|fdec dcA2|fdfa "G"gece|[M:2/4] "D"d2d2:|

